X:1
T:Title
%%score 1 2 3
L:1/8
M:2/2
K:C
V:1 treble nm="Part_1"
V:2 treble-8 nm="Part_2"
V:3 treble-8 nm="Part_3"
V:1
 z8 | z8 | z8 | c8 | A4 F4 | G8 | F8 | z4 f4- | f4 e4 | f6 _e2 | d2 c2 c4- | c4 B4 | c8 | z8 | %14
 c4 A4 | B4 c4- | c2 A4 B2 | c2 d4 B2 | G4 A2 F2 | G2 A4 F2 | G2 E2 D4 | E2 F2 G4 | E2 F2 D2 C2- | %23
 C2 F2 G2 A2 | B2 G2 c4 | A2 B2 G2 A2 | F2 G2 E2 C2 | F2 D2 G4 | C2 F4 E2 | F8 | z4 c4- | c2 A6 | %32
 d6 B2- | B4 G4- | G2 c6 | A4 d4- | d2 B2 G4- | G2 c2 A2 B2 | c4 d2 B2 | c2 d4 B2 | G2 A4 F2 | %41
 G2 E2 A4 | F2 G2 A4 | B2 c2 A2 B2- | B2 A4 G2 | A4 z4 | A4 F4 | D2 G4 E2- | E2 C4 c2- | %49
 c2 A4 F2- | F2 D4 G2 | E2 F2 G2 C2 | C2 D2 B,2 C2 | D2 E4 F2 | D2 G2 E2 A2 | F2 G2 A4 | B2 c4 A2 | %57
 B2 c2 d4 | G2 c4 B2 | A4 F2 G2 | F2 E2 GF D2 | C2 F4 E2 |[M:4/2] F16 |] %63
V:2
 c8 | A4 F4 | G8 | F8 | z4 f4- | f4 e4 | f8 | a8 | g8 | f4 g4- | g4 e4 | d8 | c8- | c8 | z4 f4 | %15
 d4 e4 | f6 d2 | e2 f2 g4 | e2 c4 d2 | B2 c2 d4 | B2 c2 B2 G2- | G2 A2 B2 c2- | c2 A2 B2 A2 | %23
 F4 B2 c2 | d2 e2 c2 f2- | f2 d2 e2 c2 | d2 B2 c2 A2 | F2 B2 G2 c2- | c2 F2 G4 | F8- | F8 | %31
 z4 f4- | f2 d6 | g6 e2- | e4 c4- | c2 f4 d2- | d2 g4 e2 | c4 f2 d2 | e2 f4 g2 | e2 f2 g4 | %40
 e2 c2 d4 | B2 c2 A2 d2- | d2 B2 c2 d2- | d2 e2 f2 d2- | d2 c2 B4 | A8 | z4 d4 | B4 G4 | c4 A4 | %49
 F4 f4 | d4 B4 | c2 A2 B2 c2 | F4 G2 E2 | F2 G2 A4 | B2 G2 c2 A2 | d2 B2 c2 d2- | d2 e2 f4 | %57
 d2 e2 f2 g2- | g2 e2 d4 | c2 f4 e2 | d2 c4 B2 | c2 A2 G4 |[M:4/2] F16 |] %63
V:3
[K:F] c4 A4 | F4 f4- | f2 d2 e4 | z4 f4 | f4 d4 | c8 | F4 B4 | A2 F4 F2 | B4 c4 | d4 B4 | c8 | G8 | %12
 A6 F2- | F2 E2 F2 ED | C4 z4 | G2 D2 A4 | F4 D2 G2 | E2 D2 z2 G2 | c4 F2 D2 | G2 F2 D4 | %20
 E2 C2 G4 | E2 D2 G2 E2 | C2 D2 B,2 F2- | F2 D2 B,2 F2 | B,2 E4 z2 | D2 G2 C2 F2 | D2 E2 C2 F2 | %27
 D2 B,2 _E2 C2 | F2 D2 C4 | z4 c4 | c6 A2- | A4 F4 | D4 G4- | G2 E6 | C6 F2- | F2 D4 G2- | %36
 G4 E2 C2- | C2 z4 G2 | C2 F2 B2 G2 | A2 D2 G4 | C2 F4 D2 | E2 C2 F4 | D2 G2 F4 | G2 C2 D2 G2- | %44
 G2 A2 E4 | z4 A4 | F4 D4 | G4 E4 | C4 F4 | c4 F4 | z4 G4 | C2 F2 E2 A2- | A4 G3 F | D2 C4 D2 | %54
 G2 E2 C2 F2 | D2 G2 F2 D2 | G2 C2 z2 F2 | G2 E2 D2 z2 | E2 C2 G4 | A2 F2 D2 E2 | F2 CDEF G2 | %61
 A2 F2 C4 |[M:4/2] c16 |] %63

